package/converter/svg/light/integral.svg

<svg xmlns="http://www.w3.org/2000/svg" viewBox="0 0 320 512"><!-- Font Awesome Pro 6.0.0-alpha2 by @fontawesome - https://fontawesome.com License - https://fontawesome.com/license (Commercial License) --><path d="M288 72C288 80.844 280.844 88 272 88S256 80.844 256 72C256 49.938 238.062 32 216 32S176 49.938 176 72V440C176 479.688 143.703 512 104 512S32 479.688 32 440C32 431.156 39.156 424 48 424S64 431.156 64 440C64 462.062 81.938 480 104 480S144 462.062 144 440V72C144 32.312 176.297 0 216 0S288 32.312 288 72Z"/></svg>

<svg xmlns="http://www.w3.org/2000/svg" viewBox="0 0 320 512"><!--! Font Awesome Pro 6.6.0 by @fontawesome - https://fontawesome.com License - https://fontawesome.com/license (Commercial License) Copyright 2024 Fonticons, Inc. --><path d="M216 32c-22.1 0-40 17.9-40 40l0 368c0 39.8-32.2 72-72 72s-72-32.2-72-72l0-24c0-8.8 7.2-16 16-16s16 7.2 16 16l0 24c0 22.1 17.9 40 40 40s40-17.9 40-40l0-368c0-39.8 32.2-72 72-72s72 32.2 72 72l0 24c0 8.8-7.2 16-16 16s-16-7.2-16-16l0-24c0-22.1-17.9-40-40-40z"/></svg>
